X:1082
T:March 3d. Regt. of Guards.
M:C
L:1/8
Q:1/2=60
I: :: ::
Z:Jack Campin * www.campin.me.uk * 2009
K:D
d>d|a3  g f2 e2 |d2 d>d d2 A>A|d3 f  e3   g|f>ga>f e2f2 |
    g2e>g f2 d>f|e>de>f d>ef>g|agfg  f2Te2 |d2 d>d d2  :|
A>A|e3  f e>fd>e|f2 f>f f2 d>e|f2e>d a2 g>f|e2 e>e e2f>g|
    a2f>a g2 e>g|fdaf   e2 f>g|agfg  f2 e2 |d2 d>d d2  :|
<end>
<start>
